packages/tokens/icons/accessSecured/size16Px.svg

<svg viewBox="0 0 16 16" fill="none" xmlns="http://www.w3.org/2000/svg" width="1em" height="1em"><path d="M3.49995 13.5V11.5C3.49995 10.3954 4.39538 9.5 5.49995 9.5H7.49995" stroke="currentColor" stroke-linecap="round" stroke-linejoin="round"/><path d="M8.00008 6.5C9.10465 6.5 10.0001 5.60457 10.0001 4.5C10.0001 3.39543 9.10465 2.5 8.00008 2.5C6.89551 2.5 6.00008 3.39543 6.00008 4.5C6.00008 5.60457 6.89551 6.5 8.00008 6.5Z" stroke="currentColor" stroke-linecap="round" stroke-linejoin="round"/><path d="M9.49995 11C9.49995 10.7239 9.72381 10.5 9.99995 10.5H13C13.2761 10.5 13.5 10.7239 13.5 11V13C13.5 13.2761 13.2761 13.5 13 13.5H9.99995C9.72381 13.5 9.49995 13.2761 9.49995 13V11Z" stroke="currentColor"/><path d="M12.5 10.5V9.5C12.5 8.94772 12.0522 8.5 11.5 8.5V8.5C10.9477 8.5 10.5 8.94772 10.5 9.5V10.5" stroke="currentColor"/></svg>

<svg xmlns="http://www.w3.org/2000/svg" fill="none" viewBox="0 0 16 16" width="1em" height="1em"><path stroke="currentColor" stroke-linecap="round" stroke-linejoin="round" d="M3.5 13.5v-2a2 2 0 0 1 2-2h2m.5-3a2 2 0 1 0 0-4 2 2 0 0 0 0 4Z"/><path stroke="currentColor" d="M9.5 11a.5.5 0 0 1 .5-.5h3a.5.5 0 0 1 .5.5v2a.5.5 0 0 1-.5.5h-3a.5.5 0 0 1-.5-.5v-2Zm3-.5v-1a1 1 0 1 0-2 0v1"/></svg>
